X: 163
T: No_95_Clouds_Roll_Toward_Me.krn
N: Derived from No_95_Clouds_Roll_Toward_Me.krn
%%abc-version 2.0
%%abcx-abcm2ps-target-version 5.9.1 (29 Sep 2008)
%%abc-creator hum2abc beta
%%abcx-conversion-date 2019/03/15 08:37:56
%%humdrum-veritas 3533333906
%%humdrum-veritas-data 1950090755
%%linebreak <none>
%%barnumbers 0
L: 1/8
M: 2/4
K: Eb clef=bass
B,3/B,/ [I:setbarnb 1]| 
FFF2 | 
F2E z ||  
[M:3/4]!fermata!G3/E/ E3/E/ E3/E/ ||  
[M:2/4]E3/C/ E3/B,/ | 
B,3/B,/ B, z | 
E3/E/ (E3/B,/) | 
B,3/B,/ B,B, | 
B,3/B,/ B,B, | 
B,B, A, z | 
C/B,3/C2 | 
B,3/B,/B,2 | 
B,3/B,/B,2 | 
B,3/B,/ B,B, | 
B,3/B,/ B, z ||  
[M:3/4]B,3/B,/ B,/B,3/ A,3/B,/ ||  
[M:2/4]B,B, A,3/B,/ | 
B,3/B,/ B,3/B,/ | 
B,3/B,/B,2 |]  



